X: 201955
T: Truthful John
S: "The Roche Collection of Traditional Irish Music" [III/27/89]
L: 1/8
M: 6/8
R: jig
K: Ddor
B | c2A BdB | cBc AGE | cBd cBA | GEE GAB |
c2A BdB | cBc AGE | dcA GEA | DED D2 :|
E | DEE AG/E/G | AGE EDE | DEE AG/E/G | AGE D2E |
DEE AG/E/G | AGE EDE | cBA GEA | DED D2 :|
